X:7
T:Black Mountain Rag
C:Traditional
M:2/4
L:1/8
K:D
R: Rag
Q:132
A:JamBuddy 2025
|:"D"F2 F2|FDEF|"G"G2 G2|G2 AG|"D"F2 F2|FDEF|"A"E2 E2|E2 E2
|"D"F2 F2|FDEF|"G"G2 G2|G2 AG|"D"F2 GF|"A"E2 FE|"D"D2 D2|D4:|
|:"D"FBAB|FBAA|FBAB|"A"FE "D"D2:|
|:"D"F2 F2|FDB,A,|F2 F2|A,B, D2:|

